symbolic/64x64/apps/com.github.kjlaw89.archetype.svg

<svg xmlns="http://www.w3.org/2000/svg" width="64" height="64" version="1">
 <rect style="opacity:0.2" width="56" height="56" x="4" y="5" rx="2.8" ry="2.8"/>
 <rect style="fill:#8340b7" width="56" height="56" x="4" y="4" rx="2.8" ry="2.8"/>
 <path style="opacity:0.2" d="M 35.374102,17 16.934,49 h 4.56771 l 4.38802,-8 h 14.578126 l 1.296874,8 h 4.502606 L 40.285562,17 Z m 1.63021,4.265626 L 39.756918,37 H 28.12671 Z"/>
 <path style="fill:#ffffff" d="M 35.374102,16 16.934,48 h 4.56771 l 4.38802,-8 h 14.578126 l 1.296874,8 h 4.502606 L 40.285562,16 Z m 1.63021,4.265626 L 39.756918,36 H 28.12671 Z"/>
 <circle style="opacity:0.2" cx="11" cy="12" r="4"/>
 <circle style="fill:#ac7ece" cx="11" cy="11" r="4"/>
 <circle style="opacity:0.2" cx="21" cy="12" r="4"/>
 <circle style="fill:#ac7ece" cx="21" cy="11" r="4"/>
 <circle style="opacity:0.2" cx="31" cy="12" r="4"/>
 <circle style="fill:#ac7ece" cx="31" cy="11" r="4"/>
 <path style="opacity:0.1;fill:#ffffff" d="M 6.8007812 4 C 5.2495812 4 4 5.2495812 4 6.8007812 L 4 7.8007812 C 4 6.2495813 5.2495812 5 6.8007812 5 L 57.199219 5 C 58.750419 5 60 6.2495812 60 7.8007812 L 60 6.8007812 C 60 5.2495813 58.750419 4 57.199219 4 L 6.8007812 4 z"/>
</svg>

<svg xmlns="http://www.w3.org/2000/svg" width="64" height="64" version="1"><rect style="opacity:.2" width="56" height="56" x="4" y="5" rx="2.8" ry="2.8"/><rect style="fill:#8340b7" width="56" height="56" x="4" y="4" rx="2.8" ry="2.8"/><path style="opacity:.2" d="m35.374 17-18.44 32h4.568l4.388-8h14.578l1.297 8h4.502l-5.981-32zm1.63 4.266L39.757 37h-11.63z"/><path style="fill:#fff" d="m35.374 16-18.44 32h4.568l4.388-8h14.578l1.297 8h4.502l-5.981-32zm1.63 4.266L39.757 36h-11.63z"/><circle style="opacity:.2" cx="11" cy="12" r="4"/><circle style="fill:#ac7ece" cx="11" cy="11" r="4"/><circle style="opacity:.2" cx="21" cy="12" r="4"/><circle style="fill:#ac7ece" cx="21" cy="11" r="4"/><circle style="opacity:.2" cx="31" cy="12" r="4"/><circle style="fill:#ac7ece" cx="31" cy="11" r="4"/><path style="opacity:.1;fill:#fff" d="M6.8 4C5.25 4 4 5.25 4 6.8v1C4 6.25 5.25 5 6.8 5h50.4C58.75 5 60 6.25 60 7.8v-1C60 5.25 58.75 4 57.2 4H6.8z"/></svg>
